!!!OTL: 4l8a. Drei Jungfraeulein.
!!!ARE: Europa, Mitteleuropa, Deutschland
!!!SCT: E0418
!!!TXL: @@DE
!!!YEM: Copyright 1995, estate of Helmut Schaffrath.
**kern	**text
*ICvox	*
*M4/4	*
*met(c)	*
*k[b-]	*
*G:	*
=1	=1
!LO:TX:a:t=Mel. bei Ott 1534. Forſter III 1549.	!
2r	.
4r	.
{4g	Mit
=2	=2
4g	Luſt
4g	thät
4g	ich
4g	aus-
=3	=3
2a	-rei-
2a}	-ten
=4	=4
{2dd	durch
4dd	ei-
4a	-nen
=5	=5
(4dd	grü-
2cc)	.
4b-	-nen
=6	=6
2a	Wald;
4r}	.
{4dd	da-
=7	=7
4dd	-rin
4dd	da
4dd	hört
4dd	ich
=8	=8
4cc	ſin-
2a}	-gen,
{4b-/	ja
=9	=9
2g	ſin-
4a	.
4.cc	.
=10	=10
.	.
8b-L	.
8a	.
8gJ	.
2a	.
=11	=11
2g}	-gen
{2dd	drei
=12	=12
(4ff	Vög-
4.dd)	.
8b-	-lein
4cc	wol-
=13	=13
2a	-ge-
!LO:N:vis=1	!
2g;}	-ſtalt.
==	==
!!!AGN: Liebes - Lied
!!!ONB: ESAC (Essen Associative Code) Database: ERK1
!!!AMT: simple quadruple
!!!AIN: vox
!!!EED: Helmut Schaffrath
!!!EEV: 1.0
!!!GTL: Liebeslieder [Alte (aus dem 13. bis 17. Jahrh.) mit ihrem jungen Nachwuchs]
!!!URL-scan: https://rosdok.uni-rostock.de/mcrviewer/recordIdentifier/rosdok_ppn745177662/iview2/phys_0237.iview2?x=-778.7160746633431&y=358.6381655796431&scale=0.3980252647138593&rotation=0&layout=singlePageLayout
!!!ENC: Anna Maria Matuszewska
!!!EEV: 2024/09/12
*-	*-
